X:1
T:Alma Redemptoris Mater - Palestrina
T:James Gibb editions
T:#
%%score { 1 | 2 | 3 } 4
L:1/8
Q:1/4=200
M:none
K:F
V:1 treble nm="Soprano I"
V:2 treble 
V:3 treble 
V:4 treble nm="Alto" snm="A"
V:1
"^Alma Redemptoris Mater""^G. P. da Palestrina\n(1526-94)" F16 | (A8 B8 | c8) z4 c4 | %3
w: Al-|ma *|* Re-|
 c4 F4 G4 (B4- | B4 A2 G2 A6 G2 | F6 E2 D8) | C8 F6 G2 | A4 (G6 F2) (F4- | F4 E2 D2 E8) | %9
w: dem- pto- ris Ma\-|||ter, Re- dem-|pto- ris * Ma\-||
 F8 z4 c4 | c8 F4 G4- | G4 A8 G2 F2 | G8 A4 c4- | c4 B4 c8 | z8 z4 F4 | G8 A8 | B4 (c6 B2 A4 | %17
w: ter, Re-|dem- pto- ris|* Ma\- * *||* * ter,|quae|per- vi-|a coe\- * *|
 G8) C8 | z8 z4 c4- | c4 B4 (A4 G4 | A4 F4 c8) | F8 z8 | z8 c8 | B8 c8 | (A8 F8) | G8 z4 c4 | %26
w: * li|por\-|* ta ma\- *||nes,|et|stel- la|ma\- *|ris, et|
 B8 c8 | (A8 G4 c4- | c2 B2 A6 G2 F4- | F4 E2 D2 E8) | F4 c4 c8 | F8 A8 | (c6 B2 A4 G4 | %33
w: stel- la|ma\- * *|||ris, suc- cur-|re ca-|den\- * * *|
 A4 c8 B4) | (c6 B2 A2 G2 F4- | F4 E4 F4 E2 D2 | C8) z8 | z4 c8 c4 | c8 z4 A4- | A4 A4 A6 G2 | %40
w: |ti, * * * *|||sur- ge-|re, sur\-|* ge- re *|
 A2 B2 c6 B2 A2 G2 | A8 z8 | z8 c8 | d8 (c6 B2 | A4 G4 A4) (B4- | B2 A2 A8) G4 | A8 c8 | d8 c8 | %48
w: ||qui|cu- rat *|* * * po\-|* * * pu-|lo, qui|cu- rat,|
 z16 | A8 B8 | (A6 G2 F4) (G4- | G2 F2 F8)[Q:1/4=198] E4 |[Q:1/4=193] F16- |[Q:1/4=184] F16 | %54
w: |qui cu-|rat * * po\-|* * * pu-|lo.||
[Q:1/4=180] F16 ||[Q:1/4=180]"^Secunda pars"[Q:1/4=180] z16 | z16 | z8 (c8- | c4 B4 A8) | G8 A8 | %60
w: |||Tu||quae ge-|
 A4 G6 F2 F4- |[Q:1/4=200][Q:1/4=200] (F4 E4 F8 | D4 E4 F8 | G8) F8 | z16 | c8 d8 | %66
w: nu- i\- * *|||* sti,||na- tu-|
 c6 B2 A2 G2 A4- | (A4 G2 F2 E4) (G4- | G4 F4) G8 | E16 | z8 z4 C4- | C4 D4 F8 | E4 F8 E4 | %73
w: ra * * * *|* * * * mi\-|* * ran-|te,|tu\-|* um san-|ctum Ge- ni-|
 D8 C4 F4- | F4 E4 F4 (D2 E2 | F2 G2 A2 B2 c2 A2) d4- | d4 c4 B8 | (A6 B2 c8- | c8) z8 | %79
w: to- rem, tu\-|* um san- ctum *|* * * * * * Ge\-|* ni- to-|rem, * *||
 z8 z4 F4- | F4 E4 (F6 E2 | D4 C4 D8) | C8 z8 | z8 z4 c4- | c4 A4 (B4 c4- | c4 B2 A2 B2 A2 A4- | %86
w: Vir\-|* go pri\- *||us|ac|* po- ste\- *||
 A4 G2 F2 G4) A4 | G8 z8 | z16 | z8 z4 F4- | F4 E4 F4 E4 | D4 (G8 F4- | F4 E4 F8) | C8 z8 | z16 | %95
w: * * * * ri-|us,||Ga\-|* bri- e- lis|ab o\- *||re||
 C8 D8 | E8 F8 | G8 A6 B2 | c16 | z16 | z8 z4 F4- | F4 E4 F8 | C8 D4 E4 | F8 C8 | z16 | z4 c8 B4 | %106
w: su- mens|il- lud|A- ve *|||pec\-|* ca- to-|rum mi- se-|re- re,||pec- ca-|
 c8 F8 | G4 A4 B8- | B4 A4 G8 | F8 z4 G4 | A4 (B6 A2) F4 | G8 C4 (F4- | %112
w: to- rum|mi- se- re\-||re, pec-|ca- to\- * rum|mi- se- re\-|
[Q:1/4=198] F4[Q:1/4=196] E2[Q:1/4=195] D2[Q:1/4=192] E8) |[Q:1/4=184] F16- |[Q:1/4=174] F16 | %115
w: |re.||
[Q:1/4=170] F16 |] %116
w: |
V:2
 z16 | z16 | z16 | z16 | F16 | A8 B8 | c8 z4 c4 | c8 F8 | G16 | (A6 G2 F8- | F4 E4 D8 | %11
w: ||||Al-|ma *|* Re-|dem- pto-|ris|Ma\- * *||
 E4 F8 E2 D2 | E8 F6 E2 | (D4 G6 F2 F4- | F4 E4) F8 | z8 F8 | G8 A8 | B8) c8 | d8 c8 | z4 F8 E4 | %20
w: |||* * ter,|quae|per- vi\-|* a|coe- li|por- ta|
 D8 C8 | z4 F8 E4 | (D2 C2 D2 E2 F6 E2 | D8) C8 | z8 F8 | E8 F8 | D8 C8 | c8 (c6 B2 | %28
w: ma- nes,|por- ta|ma\- * * * * *|* nes,|et|stel- la|ma- ris,|et stel\- *|
 A6 G2 F4) F4 | G16 | A8 z4 c4 | c8 F8 | z8 c8 | c8 F8 | A8 (c6 B2 | A4 G4 F4 G4- | G2 F2 F8 E4) | %37
w: * * * la|ma-|ris, suc-|cur- re,|suc-|cur- re|ca- den\- *|||
 F8 z4 A4- | A4 A4 A8 | z4 c8 c4 | (c6 B2 A2 G2 F2 E2 | F8 z8 | z16 | z16 | z16 | c8 d8 | %46
w: ti, sur\-|* ge- re,|sur- ge-|re * * * * *|||||qui cu-|
 c6 B2 A4 G4) | A4 B6 A2 A4- | A4 G4 (A6 G2 | F4 E4 F8- | F8) c8 | d8 c8 | A6 B2 c8 | d6 c2 B4 B4 | %54
w: rat * * *|po\- * * *|* pu- lo, *||* qui|cu- rat|po\- * *|* * * pu-|
 A16 || z16 | z16 | z16 | z16 | z8 (c8- | c4 B4 A8) | G8 A8 | A4 (G6 F2 F4- | F4 E4) F4 c4 | %64
w: lo.|||||Tu||quae ge-|nu- i\- * *|* * sti, na-|
 d8 (c6 B2 | A2 G2 A8 G2 F2 | G8) F8 | (c6 B2 A2 G2 d4- | d2 c2 c8 =B4) | c16 | z16 | z16 | z16 | %73
w: tu- ra *||* mi-|ran\- * * * *||te,||||
 z8 F8 | G8 A8 | (A6 G2 A4) (B4- | B2 A2 A8) G4 | (A6 GF G8) | A8 z4 c4- | c4 B4 (c6 B2 | %80
w: tu-|um san-|ctum * * Ge\-|* * * ni-|to\- * * *|rem. Vir\-|* go pri\- *|
 A4 G4 A8) | G8 z4 G4- | G4 E4 (F4 G4- | G2 F2 F8) E4 | F8 z8 | z16 | c12 c4 | (c6 B2 A4) G4 | %88
w: |us ac|* po- ste\- *|* * * ri-|us,||Ga- bri-|e\- * * lis|
 A4 (B6 A2 A4 | G8 F2 G2 A2 F2 | G4) C4 D4 E4 | F4 G4 _E4 F4 | c8 z4 F4 | G8 A8- | A4 B4 c8- | %95
w: ab o\- * *||* re, Ga- bri-|e- lis ab o-|re su-|mens il\-|* lud A\-|
 c8 F8 | z4 c8 B4 | c8 F8 | G8 A8 | (B12 A4 | G8) F8 | G8 A4 (c4- | c2 B2 A8 G4) | A8 G8- | G16 | %105
w: * ve|pec- ca-|to- rum|mi- se-|re\- *|* re,|pec- ca- to\-||rum mi\-||
 A8 (G6 F2 | E4 D2 C2 D8) | C8 z8 | z8 z4 c4- | c4 B4 c8 | F8 G4 A4 | B12 A4 | G16 | c8 B8- | %114
w: se- re\- *||re,|pec\-|* ca- to-|rum mi- se-|re\- *||re, mi\-|
 B4 c4 d8 | c16 |] %116
w: * se- re-|re.|
V:3
 z16 | z16 | F16 | (A8 B8 | c8) z4 c4 | c8 F8 | G8 (A6 G2 | F4 E4 D8) | C16 | z4 c4 c8 | A4 A4 d8 | %11
w: ||Al-|ma *|* Re-|dem- pto-|ris Ma\- *||ter,|Re- dem-|pto- ris Ma-|
 c16- | c16 | z8 z4 F4 | G8 (A8 | B8) c8 | z4 C8 D4- | D4 E8 F4- | F4 (G6 E2 A4) | F8 z4 c4- | %20
w: ter,||quae|per- vi\-|* a,|quae per\-|* vi- a|* coe\- * *|li por\-|
 c4 B4 (A4 G4 | A4 B6 A2 A4- | A4 G4) A8 | z16 | c8 B8 | c8 A8 | (G6 F2 E8) | z4 F4 E8 | F8 D8 | %29
w: * ta ma\- *||* * nes,||et stel-|la ma-|ris, * *|et stel-|la ma-|
 C8 z4 c4 | c8 F8 | A8 (c6 B2 | A4 G4 F4 E4 | F8 D8) | C16 | z4 G4 A4 B4 | c8 B8 | A16 | z4 c8 c4 | %39
w: ris, suc-|cur- re|ca- den\- *|||ti,|suc- cur- re|ca- den-|ti,|sur- ge-|
 c8 z4 F4- | F4 F4 F8 | c8 d8 | c6 B2 A4 G4 | A4 B4 (A6 G2 | F4) E4 F4 G4 | E4 E4 D8 | z4 F8 E4 | %47
w: re, sur\-|* ge- re|qui cu-|rat * * *|po- pu- lo, *|* qui cu- rat|po- pu- lo,|qui cu-|
 F4 G4 A4 F4 | B4 B4 A8 | z4 c4 d8 | (c6 B2 A4 G4 | A4 B4) G4 G4 | F4 c4 A4 A4 | (B6 c2 d4) d4 | %54
w: rat po\- * *|* pu- lo,|qui cu-|rat * * *|* * po- pu-|lo, qui cu- rat|po\- * * pu-|
 c16 || z8 (c8- | c4 B4 A8) | G8 A8 | A4 (G6 F2 F4- | F4 E4 F6 E2 | D8) C8 | z4 c8 d4- | d4 c8 B4 | %63
w: lo.|Tu||quae ge-|nu- i\- * *||* sti,|na- tu\-|* ra mi-|
 (c6 B2 A2 G2 A4 | F4 G4 A6 G2 | F2 E2 F8 E2 D2) | E8 z4 F4- | F4 E4 C4 D4 | (E4 D2 C2 D8) | %69
w: ran\- * * * *|||te, na\-|* tu- ra mi-|ran\- * * *|
 C8 z8 | F8 G8 | A8 (A6 G2 | A4) B6 A2 (A4- | A4 G4) A8 | z4 c8 d4 | (c6 B2 A4 G4) | F8 D4 E4 | %77
w: te,|tu- um|san- ctum *|* Ge- ni- to\-|* * rem,|tu- um|san\- * * *|ctum Ge- ni-|
 F8 C8 | z4 F8 E4 | (F8 G4) A4 | z16 | z4 c8 B4 | (c6 B2 A4 G4 | A8) G8 | z4 F4 D4 (E4 | %85
w: to- rem.|Vir- go|pri\- * us,||Vir- go|pri\- * * *|* us|ac po- ste\-|
 F4 G6 F2 F4- | F4 E2 D2 E4) F4 | C8 z8 | z16 | z4 c8 c4 | (c6 B2 A4) G4 | A4 (B8 A4 | G8) F8 | %93
w: |* * * * ri-|us,||Ga- bri-|e\- * * lis|ab o\- *|* re|
 z16 | F8 G8 | A8 B8 | G4 A6 G2 F4- | (F4 E4 D8) | C8 z8 | z16 | z4 c8 B4 | c12 F4 | G4 A4 B8 | %103
w: |su- mens|il- lud|A\- * * *||ve||pec- ca-|to- rum|mi- se- re-|
 A4 F8 E4 | C4 D4 E2 (F4 E2) | (F6 E2 D8) | C8 z8 | z4 F8 E4 | F8 C8 | z4 F8 E4 | %110
w: re, pec- ca-|to- rum mi- se\- *|re\- * *|re,|pec- ca-|to- rum|mi- se-|
 (D6 C2 D2 E2 F4- | F4 E4) F4 c4- | c4 c4 c8 | A8 d8- | d4 c4 B8 | A16 |] %116
w: re\- * * * *|* * re, pec\-|* ca- to-|rum mi\-|* se- re-|re.|
V:4
 z16 | z16 | z16 | z16 | z16 | z16 | z16 | z16 | z16 | F,16 | (A,8 B,8 | C8) z4 C4 | C8 F,8 | %13
w: |||||||||Al-|ma *|* Re-|dem- pto-|
 G,8 (A,8 | G,8) F,8 | z16 | z8 F,8 | G,8 (A,8 | B,8) C8 | D8 C8 | (F12 E4) | D8 (C6 A,2 | %22
w: ris Ma\-|* ter,||quae|per- vi\-|* a|coe- li|por\- *|ta ma\- *|
 B,8) F,8 | F8 E8 | F8 D8 | C8 z4 F,4 | G,4 G,4 (A,8 | F,8 C8 | z16 | z4 C4 C8 | F,16- | F,16 | %32
w: * nes,|et stel-|la ma-|ris, et|stel- la ma\-|* ris,||suc- cur-|re,||
 z16 | z4 F4 F8 | F,8 A,8 | C6 B,2 A,4 G,4 | A,6 G,F, G,8) | F,8 F8- | F4 F4 F8 | F,12 F,4 | F,16 | %41
w: |suc- cur-|re ca-|den\- * * *||ti, sur\-|* ge- re,|sur- ge-|re|
 z4 F8 G4 | E4 F8 E4 | D4 B,4 F4 (F,2 G,2 | A,2 B,2 C4) (A,4 G,4 | A,8 B,4) B,4 | A,8 z8 | z8 F8 | %48
w: qui cu-|rat po- pu-|lo, qui cu- rat *|* * * po- *|* * pu-|lo,|qui|
 G8 (F6 E2 | D4 C4) B,4 B,4 | F,4 (F8 E4 | D4) B,4 C8 | (F,16 | B,12) B,4 | F,16 || (F12 E4 | %56
w: cu- rat *|* * po- pu-|lo, po\- *|* pu- lo,|po\-|* pu-|lo.|Tu *|
 D8) C4 A,4 | B,4 (C6 B,2 A,2 G,2 | F,4 G,4 A,4 F,4) | C8 z4 F,4- | F,4 G,4 A,4 F,4 | C8 F,8 | %62
w: * quae ge-|nu- i\- * * *||sti, tu|* quae ge- nu-|i- sti,|
 z4 C4 D8 | C8 F,8 | B,8 A,8 | z16 | C8 D8 | C12 B,4 | A,8 G,8 | z8 C8 | D8 E8 | A,4 (F6 E2 D4) | %72
w: na- tu-|ra mi-|ran- te,||na- tu-|ra mi-|ran- te,|tu-|um san-|ctum Ge\- * *|
 C4 (D6 C2 A,4 | B,8 F,8) | C8 z8 | z16 | z16 | z4 F8 E4 | (F6 E2 D4 C4 | D8 C4 (F,2 G,2 | %80
w: ni- to\- * *||rem.|||Vir- go|pri\- * * *|* us, Vir\- *|
 A,2 B,2 C4) F,4 A,4 | B,4 C4 G,8) | C8 z4 C4- | C4 A,4 B,4 C4 | F,8 z8 | z16 | z8 z4 F4- | %87
w: * * * go pri\-||us ac|* po- ste- ri-|us,||Ga\-|
 F4 E4 F4 E4 | D4 (G6 F2 F4- | F4 E4 F8) | C8 z8 | z16 | C8 D8 | E8 F8 | D8 C8 | F,8 B,8 | %96
w: * bri- e- lis|ab o\- * *||re||su- mens|il- lud|A- ve,|il- lud|
 (C8 D8) | C8 z4 F4- | F4 E4 F8 | B,4 (B,2 C2 D2 E2 F4- | F4) E4 D8 | C8 z8 | z16 | z8 z4 C4- | %104
w: A\- *|ve pec\-|* ca- to-|rum mi\- * * * *|* se- re-|re,||pec\-|
 C4 B,4 C8 | F,8 G,8 | A,8 (B,8- | B,4 A,4 G,8) | F,4 F8 E4 | D8 C8 | z4 B,8 A,4 | (G,8 F,8 | %112
w: * ca- to-|rum mi-|se- re\-||re, mi- se-|re- re,|mi- se-|re\- *|
 C16) | F,8 B,8- | B,4 A,4 B,8 | F,16 |] %116
w: |re, mi\-|* se- re-|re.|

